X: 80
T: No_177_I_Have_Been_Waiting.krn
N: Derived from No_177_I_Have_Been_Waiting.krn
%%abc-version 2.0
%%abcx-abcm2ps-target-version 5.9.1 (29 Sep 2008)
%%abc-creator hum2abc beta
%%abcx-conversion-date 2019/03/15 08:29:13
%%humdrum-veritas 3295931645
%%humdrum-veritas-data 2567391427
%%linebreak <none>
%%barnumbers 0
L: 1/4
M: 2/4
K: Db clef=treble
[K:clef=treble][M:2/4]AA | 
AA ||  
[M:3/4]AFF ||  
[M:2/4]F2 | 
FD | 
DD | 
DB, | 
DD | 
DD | 
D2- ||  
[M:3/4]D3 | 
FFF ||  
[M:2/4]FD | 
FF | 
FD | 
DD | 
DB, | 
A,A, | 
A,F, | 
A,A, | 
A,A, | 
A,2- ||  
[M:3/4]A,3[K:clef=bass] ||  
DDD ||  
[M:2/4]DB, | 
FD ||  
[M:3/4]DB,B, ||  
[M:2/4]A,A, | 
B,A, ||  
[M:3/4]F,F,E, ||  
[M:2/4]D,D, ||  
[M:3/4]D,3 | 
D,3 ||  
[M:2/4]DD | 
DD | 
DB, | 
DD | 
DD ||  
[M:3/4]D3 ||  
[M:2/4]FF ||  
[M:3/4]FFD ||  
[M:2/4]FF | 
FD | 
DD | 
DB, | 
A,A, | 
A,F, | 
E,A, | 
A,A, | 
A,A, ||  
[M:3/4]A,3 ||  
[M:2/4]DD | 
DD | 
DB, | 
FD ||  
[M:3/4]DB,B, ||  
[M:2/4]A,A, | 
B,A, ||  
[M:3/4]F,F,E, ||  
[M:2/4]D,D, ||  
[M:3/4]D,3 |]  



